img/ui/element-tool/normal.svg

<svg width="100" height="100" viewBox="0 0 100 100" fill="none" xmlns="http://www.w3.org/2000/svg">
<rect x="10" y="10" width="80" height="80" rx="17" fill="#D3D1BB" stroke="#9C9F83" stroke-width="4"/>
<path d="M58 36C58 39.3137 60.6863 42 64 42H78C79.1046 42 80 42.8954 80 44V56C80 57.1046 79.1046 58 78 58H64C60.6863 58 58 60.6863 58 64V78C58 79.1046 57.1046 80 56 80H44C42.8954 80 42 79.1046 42 78V64C42 60.6863 39.3137 58 36 58H22C20.8954 58 20 57.1046 20 56V44C20 42.8954 20.8954 42 22 42H36C39.3137 42 42 39.3137 42 36V22C42 20.8954 42.8954 20 44 20H56C57.1046 20 58 20.8954 58 22V36Z" stroke="#9C9F83" stroke-width="4"/>
</svg>

<svg width="100" height="100" fill="none" xmlns="http://www.w3.org/2000/svg"><rect x="10" y="10" width="80" height="80" rx="17" fill="#D3D1BB" stroke="#9C9F83" stroke-width="4"/><path d="M58 36a6 6 0 0 0 6 6h14a2 2 0 0 1 2 2v12a2 2 0 0 1-2 2H64a6 6 0 0 0-6 6v14a2 2 0 0 1-2 2H44a2 2 0 0 1-2-2V64a6 6 0 0 0-6-6H22a2 2 0 0 1-2-2V44a2 2 0 0 1 2-2h14a6 6 0 0 0 6-6V22a2 2 0 0 1 2-2h12a2 2 0 0 1 2 2v14Z" stroke="#9C9F83" stroke-width="4"/></svg>
